src/images/inline/telefone.svg

<svg width="30px" height="32px" viewBox="0 0 30 32" version="1.1" xmlns="http://www.w3.org/2000/svg" xmlns:xlink="http://www.w3.org/1999/xlink">
    <g id="Symbols" stroke="none" stroke-width="1" fill="none" fill-rule="evenodd">
        <g id="icon/telefone" fill="#372E2D" fill-rule="nonzero">
            <g id="Shape">
                <path d="M14.9757407,0 C6.70549383,0 6.17283949e-05,7.02988849 6.17283949e-05,15.7003086 C6.17283949e-05,24.3705994 6.70549383,31.4006173 14.9757407,31.4006173 C23.2459877,31.4006173 29.9512963,24.3705346 29.9512963,15.7003086 C29.951358,7.02988849 23.2459877,0 14.9757407,0 Z M22.0404484,22.1417297 L20.9729661,23.2610949 C20.7823855,23.4606091 20.2243271,23.585111 20.2064121,23.585111 C16.8293761,23.6159917 13.5778002,22.2253264 11.188728,19.7204234 C8.79311626,17.2074547 7.46509679,13.7863881 7.50076197,10.2340212 C7.50076197,10.232408 7.62297977,9.66411229 7.81339554,9.46638409 L8.88082292,8.34713415 C9.27143628,7.93571892 10.0217788,7.7498014 10.5474143,7.93416336 L10.7719565,8.01269004 C11.2960532,8.19687916 11.8463081,8.80440943 11.991112,9.36412081 L12.528068,11.4302423 C12.6728719,11.9915668 12.4775652,12.7901422 12.0870618,13.1996562 L11.3743078,13.9470135 C12.0740926,16.6630108 14.1067878,18.7944655 16.6978711,19.5298969 L17.4103503,18.7823668 C17.8027771,18.3709515 18.5642204,18.1663674 19.0984836,18.3179475 L21.0689708,18.8829016 C21.6029593,19.0367286 22.1823398,19.6099791 22.3579729,20.1592625 L22.4328753,20.3980689 C22.6069697,20.9475827 22.4310068,21.7340593 22.0404484,22.1417297 Z"></path>
            </g>
        </g>
    </g>
</svg>

<svg xmlns="http://www.w3.org/2000/svg" width="30" height="32" viewBox="0 0 30 32">
    <path fill="#372E2D" fill-rule="nonzero" d="M14.976 0C6.706 0 0 7.03 0 15.7c0 8.67 6.705 15.7 14.976 15.7 8.27 0 14.975-7.03 14.975-15.7 0-8.67-6.705-15.7-14.975-15.7zm7.064 22.142l-1.067 1.12c-.19.199-.749.323-.767.323-3.377.031-6.628-1.36-9.017-3.865-2.396-2.513-3.724-5.934-3.688-9.486 0-.002.122-.57.312-.768l1.068-1.119c.39-.411 1.14-.597 1.666-.413l.225.079c.524.184 1.074.791 1.22 1.351l.536 2.066c.145.562-.05 1.36-.44 1.77l-.714.747c.7 2.716 2.733 4.847 5.324 5.583l.712-.748c.393-.411 1.154-.616 1.688-.464l1.971.565c.534.154 1.113.727 1.289 1.276l.075.24c.174.549-.002 1.335-.393 1.743z"/>
</svg>
